Sources/FrostedUI/Resources/Icons.xcassets/arrowFatDown20.imageset/arrow-fat-down-20.svg

<svg width="20" height="20" viewBox="0 0 20 20" fill="none" xmlns="http://www.w3.org/2000/svg" data-fui-icon="true">
  <path
    d="M11.8744 1.54199C12.7488 1.54199 13.4582 2.25071 13.4584 3.125V10.709H15.5492C16.5474 10.709 17.0842 11.8806 16.433 12.6367L11.1996 18.7148C10.5679 19.4479 9.4318 19.4481 8.80017 18.7148L3.5658 12.6367C2.91485 11.8807 3.452 10.7095 4.44958 10.709H6.54138V3.125C6.54156 2.25089 7.25031 1.54231 8.12439 1.54199H11.8744ZM8.12439 3.04199C8.07874 3.04231 8.04156 3.07932 8.04138 3.125V11.459C8.04102 11.8729 7.70537 12.209 7.29138 12.209H5.17712L9.93689 17.7363C9.96995 17.7743 10.0296 17.7743 10.0629 17.7363L14.8226 12.209H12.7084C12.2945 12.2089 11.9587 11.8728 11.9584 11.459V3.125C11.9582 3.07912 11.9203 3.04199 11.8744 3.04199H8.12439Z"
    fill="currentColor"
  />
</svg>

<svg xmlns="http://www.w3.org/2000/svg" width="20" height="20" fill="none" data-fui-icon="true" viewBox="0 0 20 20"><path fill="currentColor" d="M11.874 1.542c.875 0 1.584.709 1.584 1.583v7.584h2.091c.998 0 1.535 1.172.884 1.928L11.2 18.715a1.584 1.584 0 0 1-2.4 0l-5.234-6.078c-.651-.756-.114-1.928.884-1.928H6.54V3.125c0-.874.71-1.583 1.583-1.583zm-3.75 1.5a.084.084 0 0 0-.083.083v8.334a.75.75 0 0 1-.75.75H5.177l4.76 5.527a.084.084 0 0 0 .126 0l4.76-5.527h-2.115a.75.75 0 0 1-.75-.75V3.125a.084.084 0 0 0-.084-.083z"/></svg>
